X:21023 
T:CARBRAY'S FROLICS 
B:DMI.0407
Z:Nordberg/Black
R:jig
%Q:1/4=160
M:6/8
L:1/8
K:D
d|c2A Bcd|AGF E2D|EFE E2D|EFE E2d|
c2A Bcd|AGF E2D|F2D GEC|DED D2:|
G|A3 AFD|FED AFD|EFE E2D|EFE E2G|
A3 AFD|FED AFD|F2D GEC|DED D2:|

%%%

